assets/img/braze_icons/telescope.svg

<svg fill="none" height="24" viewBox="0 0 24 24" width="24" xmlns="http://www.w3.org/2000/svg"><path clip-rule="evenodd" d="m20.1205 1.67588c.1434-.02613.3522-.05055.5914.0003.3099.06586.5909.22812.8029.46353.1636.18178.2469.3748.2959.512.0424.11838.0791.25579.1099.37085l1.4096 5.26074c.0309.11505.0678.25244.0903.37614.0261.14334.0505.35212-.0003.59139-.0659.30984-.2281.59089-.4635.80287-.1818.1636-.3748.2469-.512.2959-.1184.0423-.2558.0791-.3708.1099l-.0597.016c-.5092.1364-.9484.2541-1.3182.3215-.3902.0711-.7885.104-1.2039.0157-.365-.0775-.71-.222-1.0185-.4238l-4.0243 1.0782c.3469.4895.5508 1.0874.5508 1.7329 0 .6636-.2154 1.2769-.5802 1.7737l4.4065 6.4629c.3112.4563.1935 1.0784-.2628 1.3895-.4564.3111-1.0785.1935-1.3896-.2629l-4.4062-6.4623c-.245.0647-.5023.0991-.7677.0991-.2653 0-.5225-.0344-.7675-.0991l-4.40616 6.4623c-.31112.4564-.93325.574-1.38956.2629-.45632-.3111-.57401-.9332-.26289-1.3895l4.40645-6.4628c-.36483-.4968-.58032-1.1101-.58032-1.7738 0-.0931.00424-.1852.01253-.2761l-2.11777.5675c-.11504.0308-.25244.0677-.37614.0903-.14334.0261-.35212.0505-.59138-.0004-.30985-.0658-.59089-.2281-.80285-.4635-.04625-.0513-.08607-.1036-.12052-.1552l-1.26566.3391c-.11504.0309-.25245.0677-.37614.0903-.14334.0261-.35212.0505-.59139-.0003-.30984-.0659-.59089-.2281-.80285-.4635-.16367-.1818-.24691-.3748-.29595-.512-.04233-.1184-.07909-.2559-.10988-.3709l-.37432-1.397c-.03088-.1151-.06775-.2525-.09029-.3762-.02613-.1433-.05055-.3521.0003-.59136.06586-.30984.22812-.59089.46353-.80285.18178-.16367.3748-.24691.512-.29595.1184-.04233.25582-.07909.37089-.10988l1.26579-.33916c.00401-.06183.01237-.12688.02671-.19434.06586-.30985.22812-.59089.46352-.80285.18178-.16368.37481-.24692.51201-.29596.11839-.04233.25582-.07909.37089-.10988l11.57875-3.10251c.1663-.32904.3928-.62662.6701-.87627.3156-.28416.677-.45482 1.0505-.58834.3539-.12651.7931-.2442 1.3023-.38061l.0596-.01597c.115-.03088.2525-.06775.3761-.09029zm-.074 2.07996c-.4491.12081-.7554.20604-.9908.29019-.2567.09175-.3442.15421-.3854.19135-.157.1413-.2651.32866-.3091.53523-.0115.05428-.0218.16132.0271.42947.0509.27967.1465.63946.2958 1.19637l.1552.57956c.1493.5569.2464.91629.3421 1.18398.0917.25666.1542.3442.1913.38544.1413.15694.3287.26511.5352.30902.0543.01153.1614.02186.4295-.02701.2459-.04482.5538-.12415 1.0032-.24411z" fill="#801ed7" fill-rule="evenodd"/></svg>

<svg width="24" height="24" viewBox="0 0 24 24" fill="none" xmlns="http://www.w3.org/2000/svg">
<path fill-rule="evenodd" clip-rule="evenodd" d="M20.1205 1.67588C20.2639 1.64975 20.4727 1.62533 20.7119 1.67618C21.0218 1.74204 21.3028 1.9043 21.5148 2.13971C21.6784 2.32149 21.7617 2.51451 21.8107 2.65171C21.8531 2.77009 21.8898 2.9075 21.9206 3.02256L23.3302 8.2833C23.3611 8.39835 23.398 8.53574 23.4205 8.65944C23.4466 8.80278 23.471 9.01156 23.4202 9.25083C23.3543 9.56067 23.1921 9.84172 22.9567 10.0537C22.7749 10.2173 22.5819 10.3006 22.4447 10.3496C22.3263 10.3919 22.1889 10.4287 22.0739 10.4595L22.0142 10.4755C21.505 10.6119 21.0658 10.7296 20.696 10.797C20.3058 10.8681 19.9075 10.901 19.4921 10.8127C19.1271 10.7352 18.7821 10.5907 18.4736 10.3889L14.4493 11.4671C14.7962 11.9566 15.0001 12.5545 15.0001 13.2C15.0001 13.8636 14.7847 14.4769 14.4199 14.9737L18.8264 21.4366C19.1376 21.8929 19.0199 22.515 18.5636 22.8261C18.1072 23.1372 17.4851 23.0196 17.174 22.5632L12.7678 16.1009C12.5228 16.1656 12.2655 16.2 12.0001 16.2C11.7348 16.2 11.4776 16.1656 11.2326 16.1009L6.82644 22.5632C6.51532 23.0196 5.89319 23.1372 5.43688 22.8261C4.98056 22.515 4.86287 21.8929 5.17399 21.4366L9.58044 14.9738C9.21561 14.477 9.00012 13.8637 9.00012 13.2C9.00012 13.1069 9.00436 13.0148 9.01265 12.9239L6.89488 13.4914C6.77984 13.5222 6.64244 13.5591 6.51874 13.5817C6.3754 13.6078 6.16662 13.6322 5.92736 13.5813C5.61751 13.5155 5.33647 13.3532 5.12451 13.1178C5.07826 13.0665 5.03844 13.0142 5.00399 12.9626L3.73833 13.3017C3.62329 13.3326 3.48588 13.3694 3.36219 13.392C3.21885 13.4181 3.01007 13.4425 2.7708 13.3917C2.46096 13.3258 2.17991 13.1636 1.96795 12.9282C1.80428 12.7464 1.72104 12.5534 1.672 12.4162C1.62967 12.2978 1.59291 12.1603 1.56212 12.0453L1.1878 10.6483C1.15692 10.5332 1.12005 10.3958 1.09751 10.2721C1.07138 10.1288 1.04696 9.92 1.09781 9.68074C1.16367 9.3709 1.32593 9.08985 1.56134 8.87789C1.74312 8.71422 1.93614 8.63098 2.07334 8.58194C2.19174 8.53961 2.32916 8.50285 2.44423 8.47206L3.71002 8.1329C3.71403 8.07107 3.72239 8.00602 3.73673 7.93856C3.80259 7.62871 3.96485 7.34767 4.20025 7.13571C4.38203 6.97203 4.57506 6.88879 4.71226 6.83975C4.83065 6.79742 4.96808 6.76066 5.08315 6.72987L16.6619 3.62736C16.8282 3.29832 17.0547 3.00074 17.332 2.75109C17.6476 2.46693 18.009 2.29627 18.3825 2.16275C18.7364 2.03624 19.1756 1.91855 19.6848 1.78214L19.7444 1.76617C19.8594 1.73529 19.9969 1.69842 20.1205 1.67588ZM20.0465 3.75584C19.5974 3.87665 19.2911 3.96188 19.0557 4.04603C18.799 4.13778 18.7115 4.20024 18.6703 4.23738C18.5133 4.37868 18.4052 4.56604 18.3612 4.77261C18.3497 4.82689 18.3394 4.93393 18.3883 5.20208C18.4392 5.48175 18.5348 5.84154 18.6841 6.39845L18.8393 6.97801C18.9886 7.53491 19.0857 7.8943 19.1814 8.16199C19.2731 8.41865 19.3356 8.50619 19.3727 8.54743C19.514 8.70437 19.7014 8.81254 19.9079 8.85645C19.9622 8.86798 20.0693 8.87831 20.3374 8.82944C20.5833 8.78462 20.8912 8.70529 21.3406 8.58533L20.0465 3.75584Z" fill="#801ED7"/>
</svg>
